humanity-icon-theme/Humanity/apps/22/preferences-desktop-theme.svg

<?xml version="1.0" encoding="UTF-8" standalone="no"?>
<!-- Created with Inkscape (http://www.inkscape.org/) -->
<svg
   xmlns:svg="http://www.w3.org/2000/svg"
   xmlns="http://www.w3.org/2000/svg"
   xmlns:xlink="http://www.w3.org/1999/xlink"
   version="1.0"
   width="22"
   height="22"
   id="svg3406">
  <defs
     id="defs3408">
    <linearGradient
       x1="20.895582"
       y1="19.034103"
       x2="20.895582"
       y2="4.0000019"
       id="linearGradient3396"
       xlink:href="#linearGradient3420"
       gradientUnits="userSpaceOnUse" />
    <linearGradient
       x1="20.414867"
       y1="14.196454"
       x2="20.414867"
       y2="41.49847"
       id="linearGradient3818"
       xlink:href="#linearGradient3839"
       gradientUnits="userSpaceOnUse"
       gradientTransform="matrix(0.5696309,0,0,0.5494099,5.282708,-3.7996704)" />
    <radialGradient
       cx="4"
       cy="14.136362"
       r="5.0000019"
       fx="4"
       fy="14.136362"
       id="radialGradient3815"
       xlink:href="#linearGradient6823"
       gradientUnits="userSpaceOnUse"
       gradientTransform="matrix(1.4670956,1.8384895e-7,-2.1847349e-7,1.6804069,4.2429321,-14.055279)" />
    <linearGradient
       id="linearGradient9366">
      <stop
         id="stop9368"
         style="stop-color:#e5addf;stop-opacity:1"
         offset="0" />
      <stop
         id="stop9370"
         style="stop-color:#c242b5;stop-opacity:1"
         offset="1" />
    </linearGradient>
    <linearGradient
       x1="38.489368"
       y1="19.198673"
       x2="38.489368"
       y2="31.401016"
       id="linearGradient3812"
       xlink:href="#linearGradient9366"
       gradientUnits="userSpaceOnUse"
       gradientTransform="matrix(0.5004676,0,0,0.5654938,-4.262681,-3.7570774)" />
    <linearGradient
       id="linearGradient3420">
      <stop
         id="stop3422"
         style="stop-color:#753400;stop-opacity:1"
         offset="0" />
      <stop
         id="stop3424"
         style="stop-color:#ee6a00;stop-opacity:1"
         offset="1" />
    </linearGradient>
    <linearGradient
       x1="19.204817"
       y1="9.2429543"
       x2="19.204817"
       y2="1.0000014"
       id="linearGradient3404"
       xlink:href="#linearGradient3420"
       gradientUnits="userSpaceOnUse" />
    <linearGradient
       id="linearGradient3839">
      <stop
         id="stop3841"
         style="stop-color:#ffed8c;stop-opacity:1"
         offset="0" />
      <stop
         id="stop3843"
         style="stop-color:#fb9858;stop-opacity:1"
         offset="0.26238" />
      <stop
         id="stop3845"
         style="stop-color:#dc572a;stop-opacity:1"
         offset="0.66093999" />
      <stop
         id="stop3847"
         style="stop-color:#9f3110;stop-opacity:1"
         offset="1" />
    </linearGradient>
    <radialGradient
       cx="27.8486"
       cy="4.607163"
       r="7.4889512"
       fx="27.8486"
       fy="4.607163"
       id="radialGradient3806"
       xlink:href="#linearGradient3839"
       gradientUnits="userSpaceOnUse"
       gradientTransform="matrix(0.8201579,0,0,0.5552213,-9.8930502,-9.4775885e-2)" />
    <linearGradient
       id="linearGradient3429">
      <stop
         id="stop3431"
         style="stop-color:#be5400;stop-opacity:1"
         offset="0" />
      <stop
         id="stop3433"
         style="stop-color:#823900;stop-opacity:1"
         offset="1" />
    </linearGradient>
    <radialGradient
       cx="30.974438"
       cy="12.172572"
       r="4.890574"
       fx="30.974438"
       fy="12.172572"
       id="radialGradient3803"
       xlink:href="#linearGradient3429"
       gradientUnits="userSpaceOnUse"
       gradientTransform="matrix(1.0875874,0,0,0.4359567,-18.686672,-0.8067144)" />
    <linearGradient
       x1="17.061718"
       y1="28.909391"
       x2="14.986086"
       y2="20.41398"
       id="linearGradient2896"
       xlink:href="#linearGradient3568"
       gradientUnits="userSpaceOnUse"
       gradientTransform="matrix(0.5696309,0,0,0.5494099,-1.717292,-0.7996697)" />
    <linearGradient
       id="linearGradient6823">
      <stop
         id="stop6825"
         style="stop-color:#ffffff;stop-opacity:1"
         offset="0" />
      <stop
         id="stop6827"
         style="stop-color:#ffffff;stop-opacity:0"
         offset="1" />
    </linearGradient>
    <radialGradient
       cx="4"
       cy="14.136362"
       r="5.0000019"
       fx="4"
       fy="14.136362"
       id="radialGradient2893"
       xlink:href="#linearGradient6823"
       gradientUnits="userSpaceOnUse"
       gradientTransform="matrix(1.4670956,1.8384895e-7,-2.1847349e-7,1.6804069,-2.7570679,-11.055279)" />
    <linearGradient
       x1="38.492046"
       y1="28.943525"
       x2="38.492046"
       y2="20.347626"
       id="linearGradient2890"
       xlink:href="#linearGradient4639"
       gradientUnits="userSpaceOnUse"
       gradientTransform="matrix(0.5004676,0,0,0.5654938,-11.262681,-0.7570767)" />
    <linearGradient
       id="linearGradient4639">
      <stop
         id="stop4641"
         style="stop-color:#555753;stop-opacity:1"
         offset="0" />
      <stop
         id="stop4643"
         style="stop-color:#7c7f79;stop-opacity:1"
         offset="1" />
    </linearGradient>
    <radialGradient
       cx="18.163805"
       cy="22.429104"
       r="2.8422911"
       fx="18.163805"
       fy="22.429104"
       id="radialGradient2887"
       xlink:href="#linearGradient4639"
       gradientUnits="userSpaceOnUse"
       gradientTransform="matrix(1.1953001,0,0,1.2379486,-13.711202,-19.310058)" />
    <linearGradient
       id="linearGradient3568">
      <stop
         id="stop3570"
         style="stop-color:#d6d6d6;stop-opacity:1"
         offset="0" />
      <stop
         id="stop3572"
         style="stop-color:#f0f0f0;stop-opacity:1"
         offset="1" />
    </linearGradient>
    <radialGradient
       cx="27.8486"
       cy="4.607163"
       r="7.4889512"
       fx="27.8486"
       fy="4.607163"
       id="radialGradient2884"
       xlink:href="#linearGradient3568"
       gradientUnits="userSpaceOnUse"
       gradientTransform="matrix(0.6451425,0,0,0.4367413,-12.019116,3.4510821)" />
    <linearGradient
       id="linearGradient3550">
      <stop
         id="stop3552"
         style="stop-color:#6f6f6f;stop-opacity:1"
         offset="0" />
      <stop
         id="stop3554"
         style="stop-color:#969696;stop-opacity:1"
         offset="1" />
    </linearGradient>
    <radialGradient
       cx="30.974438"
       cy="12.172572"
       r="4.890574"
       fx="30.974438"
       fy="12.172572"
       id="radialGradient2881"
       xlink:href="#linearGradient3550"
       gradientUnits="userSpaceOnUse"
       gradientTransform="matrix(1.0875874,0,0,0.4359567,-25.686672,2.1932867)" />
  </defs>
  <g
     id="layer1">
    <path
       d="M 13.945484,4.5071518 L 16.054514,4.5071518 C 18.496221,4.5071518 21.49285,5.2310052 21.49285,5.5269456 L 21.49285,17.958671 C 21.49285,18.254611 21.244001,18.49285 20.934866,18.49285 L 9.065134,18.49285 C 8.7559861,18.49285 8.5071499,18.254611 8.5071499,17.958671 L 8.5071499,5.5269456 C 8.5071499,5.2310052 11.453091,4.5071518 13.945484,4.5071518 L 13.945484,4.5071518 z"
       id="path3000"
       style="fill:url(#linearGradient3818);fill-opacity:1;fill-rule:evenodd;stroke:url(#linearGradient3396);stroke-width:1.01429987;stroke-linecap:butt;stroke-linejoin:miter;marker:none;stroke-miterlimit:4;stroke-dasharray:none;stroke-dashoffset:0;stroke-opacity:1;visibility:visible;display:inline;overflow:visible;enable-background:new" />
    <path
       d="M 14.107902,5.5072487 L 15.892074,5.5072487 C 17.957709,5.5072487 20.492753,6.28026 20.492753,6.28026 L 20.492753,17.492753 C 20.492753,17.492753 9.507247,17.492753 9.507247,17.492753 L 9.507247,6.28026 C 9.507247,6.28026 11.999428,5.5072487 14.107902,5.5072487 L 14.107902,5.5072487 z"
       id="path3002"
       style="opacity:0.26315792;fill:none;stroke:url(#radialGradient3815);stroke-width:1.0144937;stroke-linecap:butt;stroke-linejoin:round;marker:none;stroke-miterlimit:4;stroke-dasharray:none;stroke-dashoffset:0;stroke-opacity:1;visibility:visible;display:inline;overflow:visible;enable-background:new" />
    <path
       d="M 14.97829,5.4949556 C 14.97829,5.4949556 13.501663,8.284629 13.501663,9.345417 L 13.501663,15.79132 L 15.06515,17.698337 L 16.498337,15.79132 L 16.498337,9.245403 C 16.498337,8.255329 14.97829,5.4949556 14.97829,5.4949556 L 14.97829,5.4949556 z"
       id="path3004"
       style="fill:url(#linearGradient3812);fill-opacity:1;fill-rule:evenodd;stroke:#98308d;stroke-width:1.0033257;stroke-linecap:butt;stroke-linejoin:miter;marker:none;stroke-miterlimit:4;stroke-dasharray:none;stroke-dashoffset:0;stroke-opacity:1;visibility:visible;display:inline;overflow:visible;enable-background:new" />
    <path
       d="M 16.496395,6.0000001 C 16.496637,6.826367 15.826607,7.496397 15,7.496397 C 14.173393,7.496397 13.503363,6.826367 13.503605,6.0000001 C 13.503363,5.1736351 14.173393,4.5036061 15,4.5036061 C 15.826607,4.5036061 16.496637,5.1736351 16.496395,6.0000001 L 16.496395,6.0000001 L 16.496395,6.0000001 z"
       id="path3006"
       style="fill:#c449b8;fill-opacity:1;fill-rule:evenodd;stroke:#98308d;stroke-width:1.00720918;stroke-linecap:butt;stroke-linejoin:miter;marker:none;stroke-miterlimit:4;stroke-dasharray:none;stroke-dashoffset:0;stroke-opacity:1;visibility:visible;display:inline;overflow:visible;enable-background:new" />
    <path
       d="M 14.93893,5.5183871 L 11.688629,7.508875 C 11.688629,7.508875 10.491127,4.5934129 10.491127,3.296454 C 10.491127,2.0003241 11.346502,1.4911283 12.258862,1.4911283 C 12.258862,1.4911283 17.676024,1.4911283 17.676024,1.4911283 C 18.293176,1.4911283 19.372501,1.6994264 19.50078,3.2038785 C 19.629086,4.7083181 18.189245,7.508875 18.189245,7.508875 L 14.93893,5.5183871 z"
       id="path3008"
       style="fill:url(#radialGradient3806);fill-opacity:1;fill-rule:evenodd;stroke:url(#linearGradient3404);stroke-width:0.98225373;stroke-linecap:butt;stroke-linejoin:miter;marker:none;stroke-miterlimit:4;stroke-dasharray:none;stroke-dashoffset:0;stroke-opacity:1;visibility:visible;display:inline;overflow:visible;enable-background:new" />
    <path
       d="M 13.288063,2.5000019 C 13.033038,2.5000019 12.361875,2.7083392 12.525337,3.2083312 C 12.688775,3.7083339 13.49435,4.5000021 13.941838,4.5000021 L 16.284526,4.5000021 C 16.636664,4.5000021 17.360502,3.8333318 17.483102,3.3333292 C 17.605665,2.8333372 17.029889,2.5000019 16.774852,2.5000019 L 13.288063,2.5000019 L 13.288063,2.5000019 z"
       id="path3010"
       style="fill:url(#radialGradient3803);fill-opacity:1;fill-rule:evenodd;stroke:none;stroke-width:1;marker:none;visibility:visible;display:inline;overflow:visible;enable-background:new" />
    <path
       d="M 6.9454841,7.5071528 L 9.0545144,7.5071528 C 11.496221,7.5071528 14.49285,8.2310062 14.49285,8.5269466 L 14.49285,20.958671 C 14.49285,21.254611 14.244001,21.49285 13.934866,21.49285 L 2.0651337,21.49285 C 1.7559861,21.49285 1.5071499,21.254611 1.5071499,20.958671 L 1.5071499,8.5269466 C 1.5071499,8.2310062 4.4530907,7.5071528 6.9454841,7.5071528 L 6.9454841,7.5071528 z"
       id="path15945"
       style="fill:url(#linearGradient2896);fill-opacity:1;fill-rule:evenodd;stroke:#949494;stroke-width:1.01429987;stroke-linecap:butt;stroke-linejoin:miter;marker:none;stroke-miterlimit:4;stroke-dasharray:none;stroke-dashoffset:0;stroke-opacity:1;visibility:visible;display:inline;overflow:visible;enable-background:new" />
    <path
       d="M 7.1079017,8.5072497 L 8.8920742,8.5072497 C 10.957709,8.5072497 13.492753,9.280261 13.492753,9.280261 L 13.492753,20.492753 C 13.492753,20.492753 2.5072469,20.492753 2.5072469,20.492753 L 2.5072469,9.280261 C 2.5072469,9.280261 4.9994277,8.5072497 7.1079017,8.5072497 L 7.1079017,8.5072497 z"
       id="path15947"
       style="opacity:0.26315792;fill:none;stroke:url(#radialGradient2893);stroke-width:1.0144937;stroke-linecap:butt;stroke-linejoin:round;marker:none;stroke-miterlimit:4;stroke-dasharray:none;stroke-dashoffset:0;stroke-opacity:1;visibility:visible;display:inline;overflow:visible;enable-background:new" />
    <path
       d="M 7.9782899,8.4949566 C 7.9782899,8.4949566 6.5016629,11.284627 6.5016629,12.345415 L 6.5016629,18.79132 L 8.0651497,20.698337 L 9.4983372,18.79132 L 9.4983372,12.245401 C 9.4983372,11.255327 7.9782899,8.4949566 7.9782899,8.4949566 L 7.9782899,8.4949566 z"
       id="path15949"
       style="fill:url(#linearGradient2890);fill-opacity:1;fill-rule:evenodd;stroke:#414141;stroke-width:1.0033257;stroke-linecap:butt;stroke-linejoin:miter;marker:none;stroke-miterlimit:4;stroke-dasharray:none;stroke-dashoffset:0;stroke-opacity:1;visibility:visible;display:inline;overflow:visible;enable-background:new" />
    <path
       d="M 9.4963953,9.0000011 C 9.4966367,9.826368 8.826607,10.496397 8,10.496397 C 7.1733928,10.496397 6.5033632,9.826368 6.5036046,9.0000011 C 6.5033632,8.1736361 7.1733928,7.5036071 8,7.5036071 C 8.826607,7.5036071 9.4966367,8.1736361 9.4963953,9.0000011 L 9.4963953,9.0000011 L 9.4963953,9.0000011 z"
       id="path15951"
       style="fill:url(#radialGradient2887);fill-opacity:1;fill-rule:evenodd;stroke:#414141;stroke-width:1.00720918;stroke-linecap:butt;stroke-linejoin:miter;marker:none;stroke-miterlimit:4;stroke-dasharray:none;stroke-dashoffset:0;stroke-opacity:1;visibility:visible;display:inline;overflow:visible;enable-background:new" />
    <path
       d="M 7.9389304,8.5183881 L 4.6886288,10.508874 C 4.6886288,10.508874 3.4911269,7.5934139 3.4911269,6.296455 C 3.4911269,5.0003254 4.3465019,4.4911298 5.2588616,4.4911298 C 5.2588616,4.4911298 10.676024,4.4911298 10.676024,4.4911298 C 11.293176,4.4911298 12.372501,4.6994278 12.50078,6.2038795 C 12.629086,7.7083191 11.189245,10.508874 11.189245,10.508874 L 7.9389304,8.5183881 z"
       id="path15953"
       style="fill:url(#radialGradient2884);fill-opacity:1;fill-rule:evenodd;stroke:#949494;stroke-width:0.98225373;stroke-linecap:butt;stroke-linejoin:miter;marker:none;stroke-miterlimit:4;stroke-dasharray:none;stroke-dashoffset:0;stroke-opacity:1;visibility:visible;display:inline;overflow:visible;enable-background:new" />
    <path
       d="M 6.2880628,5.5000031 C 6.0330377,5.5000031 5.3618751,5.7083403 5.5253375,6.2083322 C 5.6887751,6.7083349 6.4943504,7.5000031 6.9418381,7.5000031 L 9.2845264,7.5000031 C 9.6366637,7.5000031 10.360502,6.8333328 10.483102,6.3333302 C 10.605665,5.8333383 10.029889,5.5000031 9.774852,5.5000031 L 6.2880628,5.5000031 L 6.2880628,5.5000031 z"
       id="path15955"
       style="fill:url(#radialGradient2881);fill-opacity:1;fill-rule:evenodd;stroke:none;stroke-width:1;marker:none;visibility:visible;display:inline;overflow:visible;enable-background:new" />
  </g>
</svg>

<?xml version="1.0" encoding="UTF-8" standalone="no"?>
<!-- Created with Inkscape (http://www.inkscape.org/) -->
<svg id="svg3406" xmlns="http://www.w3.org/2000/svg" height="22" width="22" version="1.0" xmlns:xlink="http://www.w3.org/1999/xlink">
 <defs id="defs3408">
  <linearGradient id="linearGradient3396" y2="4" xlink:href="#linearGradient3420" gradientUnits="userSpaceOnUse" x2="20.896" y1="19.034" x1="20.896"/>
  <linearGradient id="linearGradient3818" y2="41.498" xlink:href="#linearGradient3839" gradientUnits="userSpaceOnUse" x2="20.415" gradientTransform="matrix(.56963 0 0 .54941 5.2827 -3.7997)" y1="14.196" x1="20.415"/>
  <radialGradient id="radialGradient3815" xlink:href="#linearGradient6823" gradientUnits="userSpaceOnUse" cy="14.136" cx="4" gradientTransform="matrix(1.4671 1.8385e-7 -2.1847e-7 1.6804 4.2429 -14.055)" r="5"/>
  <linearGradient id="linearGradient3812" y2="31.401" gradientUnits="userSpaceOnUse" x2="38.489" gradientTransform="matrix(.50047 0 0 .56549 -4.2627 -3.7571)" y1="19.199" x1="38.489">
   <stop id="stop9368" style="stop-color:#e5addf" offset="0"/>
   <stop id="stop9370" style="stop-color:#c242b5" offset="1"/>
  </linearGradient>
  <linearGradient id="linearGradient3420">
   <stop id="stop3422" style="stop-color:#753400" offset="0"/>
   <stop id="stop3424" style="stop-color:#ee6a00" offset="1"/>
  </linearGradient>
  <linearGradient id="linearGradient3404" y2="1" xlink:href="#linearGradient3420" gradientUnits="userSpaceOnUse" x2="19.205" y1="9.243" x1="19.205"/>
  <linearGradient id="linearGradient3839">
   <stop id="stop3841" style="stop-color:#ffed8c" offset="0"/>
   <stop id="stop3843" style="stop-color:#fb9858" offset=".26238"/>
   <stop id="stop3845" style="stop-color:#dc572a" offset=".66094"/>
   <stop id="stop3847" style="stop-color:#9f3110" offset="1"/>
  </linearGradient>
  <radialGradient id="radialGradient3806" xlink:href="#linearGradient3839" gradientUnits="userSpaceOnUse" cy="4.6072" cx="27.849" gradientTransform="matrix(.82016 0 0 .55522 -9.8931 -.094776)" r="7.489"/>
  <radialGradient id="radialGradient3803" gradientUnits="userSpaceOnUse" cy="12.173" cx="30.974" gradientTransform="matrix(1.0876 0 0 .43596 -18.687 -.80671)" r="4.8906">
   <stop id="stop3431" style="stop-color:#be5400" offset="0"/>
   <stop id="stop3433" style="stop-color:#823900" offset="1"/>
  </radialGradient>
  <linearGradient id="linearGradient2896" y2="20.414" xlink:href="#linearGradient3568" gradientUnits="userSpaceOnUse" x2="14.986" gradientTransform="matrix(.56963 0 0 .54941 -1.7173 -.79967)" y1="28.909" x1="17.062"/>
  <linearGradient id="linearGradient6823">
   <stop id="stop6825" style="stop-color:#fff" offset="0"/>
   <stop id="stop6827" style="stop-color:#fff;stop-opacity:0" offset="1"/>
  </linearGradient>
  <radialGradient id="radialGradient2893" xlink:href="#linearGradient6823" gradientUnits="userSpaceOnUse" cy="14.136" cx="4" gradientTransform="matrix(1.4671 1.8385e-7 -2.1847e-7 1.6804 -2.7571 -11.055)" r="5"/>
  <linearGradient id="linearGradient2890" y2="20.348" xlink:href="#linearGradient4639" gradientUnits="userSpaceOnUse" x2="38.492" gradientTransform="matrix(.50047 0 0 .56549 -11.263 -.75708)" y1="28.944" x1="38.492"/>
  <linearGradient id="linearGradient4639">
   <stop id="stop4641" style="stop-color:#555753" offset="0"/>
   <stop id="stop4643" style="stop-color:#7c7f79" offset="1"/>
  </linearGradient>
  <radialGradient id="radialGradient2887" xlink:href="#linearGradient4639" gradientUnits="userSpaceOnUse" cy="22.429" cx="18.164" gradientTransform="matrix(1.1953 0 0 1.2379 -13.711 -19.31)" r="2.8423"/>
  <linearGradient id="linearGradient3568">
   <stop id="stop3570" style="stop-color:#d6d6d6" offset="0"/>
   <stop id="stop3572" style="stop-color:#f0f0f0" offset="1"/>
  </linearGradient>
  <radialGradient id="radialGradient2884" xlink:href="#linearGradient3568" gradientUnits="userSpaceOnUse" cy="4.6072" cx="27.849" gradientTransform="matrix(.64514 0 0 .43674 -12.019 3.4511)" r="7.489"/>
  <radialGradient id="radialGradient2881" gradientUnits="userSpaceOnUse" cy="12.173" cx="30.974" gradientTransform="matrix(1.0876 0 0 .43596 -25.687 2.1933)" r="4.8906">
   <stop id="stop3552" style="stop-color:#6f6f6f" offset="0"/>
   <stop id="stop3554" style="stop-color:#969696" offset="1"/>
  </radialGradient>
 </defs>
 <g id="layer1">
  <path id="path3000" style="stroke-width:1.0143;fill-rule:evenodd;stroke:url(#linearGradient3396);enable-background:new;fill:url(#linearGradient3818)" d="m13.945 4.5072h2.11c2.441 0 5.438 0.7238 5.438 1.0197v12.432c0 0.296-0.249 0.534-0.558 0.534h-11.87c-0.309 0-0.5579-0.238-0.5579-0.534v-12.432c0-0.296 2.9459-1.0198 5.4379-1.0198z"/>
  <path id="path3002" style="opacity:.26316;stroke-linejoin:round;stroke-width:1.0145;stroke:url(#radialGradient3815);enable-background:new;fill:none" d="m14.108 5.5072h1.784c2.066 0 4.601 0.7731 4.601 0.7731v11.213h-10.986l0.0002-11.213c0 0.0003 2.4918-0.7728 4.6008-0.7728z"/>
  <path id="path3004" style="stroke-width:1.0033;fill-rule:evenodd;stroke:#98308d;enable-background:new;fill:url(#linearGradient3812)" d="m14.978 5.495s-1.476 2.7896-1.476 3.8504v6.4456l1.563 1.907 1.433-1.907v-6.5456c0-0.9901-1.52-3.7504-1.52-3.7504z"/>
  <path id="path3006" style="stroke-width:1.0072;fill-rule:evenodd;stroke:#98308d;enable-background:new;fill:#c449b8" d="m16.496 6c0.001 0.8264-0.669 1.4964-1.496 1.4964s-1.497-0.67-1.496-1.4964c-0.001-0.8264 0.669-1.4964 1.496-1.4964s1.497 0.67 1.496 1.4964z"/>
  <path id="path3008" style="stroke-width:.98225;fill-rule:evenodd;stroke:url(#linearGradient3404);enable-background:new;fill:url(#radialGradient3806)" d="m14.939 5.5184l-3.25 1.9905s-1.198-2.9155-1.198-4.2124c0-1.2962 0.856-1.8054 1.768-1.8054h5.417c0.617 0 1.697 0.2083 1.825 1.7128 0.128 1.5044-1.312 4.305-1.312 4.305l-3.25-1.9905z"/>
  <path id="path3010" style="fill-rule:evenodd;enable-background:new;fill:url(#radialGradient3803)" d="m13.288 2.5c-0.255 0-0.926 0.2083-0.763 0.7083 0.164 0.5 0.969 1.2917 1.417 1.2917h2.343c0.352 0 1.076-0.6667 1.198-1.1667 0.123-0.5-0.453-0.8333-0.708-0.8333h-3.487z"/>
  <path id="path15945" style="stroke-width:1.0143;fill-rule:evenodd;stroke:#949494;enable-background:new;fill:url(#linearGradient2896)" d="m6.9455 7.5072h2.109c2.4415 0 5.4385 0.7238 5.4385 1.0197v12.432c0 0.296-0.249 0.534-0.558 0.534h-11.87c-0.309 0-0.5579-0.238-0.5579-0.534v-12.432c0-0.296 2.946-1.0198 5.4384-1.0198z"/>
  <path id="path15947" style="opacity:.26316;stroke-linejoin:round;stroke-width:1.0145;stroke:url(#radialGradient2893);enable-background:new;fill:none" d="m7.1079 8.5072h1.7842c2.0659 0 4.6009 0.7731 4.6009 0.7731v11.213h-10.986l0.0002-11.213c0 0.0003 2.4922-0.7728 4.6007-0.7728z"/>
  <path id="path15949" style="stroke-width:1.0033;fill-rule:evenodd;stroke:#414141;enable-background:new;fill:url(#linearGradient2890)" d="m7.9783 8.495s-1.4766 2.79-1.4766 3.85v6.446l1.5634 1.907 1.4332-1.907v-6.546c0-0.99-1.52-3.75-1.52-3.75z"/>
  <path id="path15951" style="stroke-width:1.0072;fill-rule:evenodd;stroke:#414141;enable-background:new;fill:url(#radialGradient2887)" d="m9.4964 9c0.0002 0.8264-0.6698 1.496-1.4964 1.496s-1.4966-0.6696-1.4964-1.496c-0.0002-0.8264 0.6698-1.4964 1.4964-1.4964s1.4966 0.67 1.4964 1.4964z"/>
  <path id="path15953" style="stroke-width:.98225;fill-rule:evenodd;stroke:#949494;enable-background:new;fill:url(#radialGradient2884)" d="m7.9389 8.5184l-3.2503 1.9906s-1.1975-2.9156-1.1975-4.2125c0-1.2962 0.8554-1.8054 1.7678-1.8054h5.4171c0.617 0 1.697 0.2083 1.825 1.7128 0.128 1.5044-1.312 4.3051-1.312 4.3051l-3.2501-1.9906z"/>
  <path id="path15955" style="fill-rule:evenodd;enable-background:new;fill:url(#radialGradient2881)" d="m6.2881 5.5c-0.2551 0-0.9262 0.2083-0.7628 0.7083 0.1635 0.5 0.9691 1.2917 1.4165 1.2917h2.3427c0.3522 0 1.0765-0.6667 1.1985-1.1667 0.123-0.5-0.453-0.8333-0.7081-0.8333h-3.4868z"/>
 </g>
</svg>
